images/social/tg.svg

<svg width="48" height="48" viewBox="0 0 48 48" fill="none" xmlns="http://www.w3.org/2000/svg">
<path fill-rule="evenodd" clip-rule="evenodd" d="M48 24C48 37.2548 37.2548 48 24 48C10.7452 48 0 37.2548 0 24C0 10.7452 10.7452 0 24 0C37.2548 0 48 10.7452 48 24ZM16.0715 21.8015C13.6673 22.8512 11.1971 23.9298 8.93825 25.174C7.75877 26.0376 9.32638 26.6485 10.7971 27.2215C11.0309 27.3126 11.2622 27.4027 11.4797 27.4927C11.6607 27.5484 11.8447 27.607 12.0312 27.6664C13.6669 28.1875 15.4907 28.7686 17.0787 27.8945C19.6873 26.396 22.149 24.6636 24.6089 22.9325C25.4148 22.3653 26.2205 21.7983 27.0311 21.2397C27.0691 21.2154 27.1119 21.1876 27.1588 21.1573C27.8493 20.7096 29.4024 19.7029 28.8279 21.0901C27.4695 22.5757 26.0144 23.8907 24.5515 25.213C23.5655 26.1041 22.5759 26.9985 21.6099 27.9505C20.7686 28.6341 19.8949 30.0088 20.837 30.9661C23.0069 32.4851 25.2107 33.9673 27.4132 35.4487C28.1299 35.9307 28.8466 36.4127 29.5618 36.8959C30.774 37.8637 32.6685 37.0808 32.935 35.5685C33.0535 34.8728 33.1725 34.1772 33.2915 33.4815C33.9491 29.6368 34.6069 25.7907 35.188 21.9335C35.267 21.3284 35.3565 20.7234 35.4461 20.1181C35.6632 18.651 35.8806 17.1821 35.9485 15.7071C35.7735 14.2351 33.9887 14.5588 32.9955 14.8898C27.8903 16.8324 22.8361 18.919 17.8019 21.0424C17.2316 21.295 16.6535 21.5474 16.0715 21.8015Z" fill="white"/>
</svg>

<svg width="48" height="48" fill="none" xmlns="http://www.w3.org/2000/svg"><path fill-rule="evenodd" clip-rule="evenodd" d="M48 24c0 13.255-10.745 24-24 24S0 37.255 0 24 10.745 0 24 0s24 10.745 24 24zm-31.928-2.198c-2.405 1.05-4.875 2.128-7.134 3.372-1.18.864.388 1.474 1.86 2.047.233.092.464.182.682.272.18.055.365.114.551.173 1.636.521 3.46 1.103 5.048.229 2.608-1.499 5.07-3.231 7.53-4.962.806-.568 1.611-1.135 2.422-1.693l.128-.083c.69-.447 2.243-1.454 1.669-.067-1.358 1.486-2.814 2.8-4.276 4.123-.986.891-1.976 1.785-2.942 2.738-.841.683-1.715 2.058-.773 3.015 2.17 1.52 4.374 3.001 6.576 4.483.717.482 1.434.964 2.149 1.447 1.212.968 3.107.185 3.373-1.328l.356-2.087c.658-3.844 1.316-7.69 1.897-11.548.079-.605.168-1.21.258-1.815.217-1.467.435-2.936.503-4.41-.175-1.473-1.96-1.15-2.953-.818-5.106 1.942-10.16 4.029-15.194 6.152-.57.253-1.148.505-1.73.76z" fill="#fff"/></svg>
